src/assets/images/homepage/partner-1.svg

<svg width="166" height="36" viewBox="0 0 166 36" fill="none" xmlns="http://www.w3.org/2000/svg">
<g id="Vector">
<path fill-rule="evenodd" clip-rule="evenodd" d="M17.6609 4.28282L20.0047 0.223572L26.6496 4.06062L24.3066 8.11898C23.8951 8.83093 24.5111 9.69664 25.3181 9.54109L29.8084 8.67449L31.2617 16.209L26.7713 17.0748C19.5079 18.4755 13.9625 10.6895 17.6609 4.28282Z" fill="#3A724F"/>
<path fill-rule="evenodd" clip-rule="evenodd" d="M13.6008 31.7172L11.2569 35.7765L4.61121 31.9403L6.95503 27.8811C7.36656 27.1691 6.7506 26.3034 5.94267 26.4589L1.45322 27.3246L0 19.791L4.49033 18.9253C11.7538 17.5245 17.2983 25.3106 13.6008 31.7172Z" fill="#DC8E43"/>
<path fill-rule="evenodd" clip-rule="evenodd" d="M13.8034 4.28282L11.4605 0.223572L4.81475 4.06062L7.15857 8.11898C7.56921 8.83093 6.95414 9.69664 6.14621 9.54109L1.65588 8.67449L0.204429 16.209L4.69387 17.0748C11.9582 18.4755 17.5036 10.6895 13.8043 4.28282H13.8034Z" fill="#14424C"/>
<path fill-rule="evenodd" clip-rule="evenodd" d="M17.4654 31.7172L19.8074 35.7765L26.4531 31.9403L24.1093 27.8811C23.6987 27.1691 24.3137 26.3034 25.1217 26.4589L29.6111 27.3246L31.0643 19.791L26.574 18.9253C19.3106 17.5245 13.7661 25.3106 17.4636 31.7172H17.4654Z" fill="#C85D1B"/>
<path d="M144.979 27.0242V19.4692C144.979 18.4222 145.22 17.4827 145.702 16.6517C146.201 15.8037 146.907 15.1389 147.822 14.6563C148.736 14.1745 149.825 13.9337 151.088 13.9337C151.678 13.9279 152.265 14.0033 152.834 14.1576C153.366 14.291 153.848 14.4821 154.28 14.7309C154.729 14.9638 155.111 15.2464 155.427 15.5789H155.477C155.816 15.2417 156.202 14.956 156.624 14.7309C157.087 14.476 157.582 14.2832 158.096 14.1576C158.673 14.0044 159.269 13.9291 159.866 13.9337C161.129 13.9337 162.218 14.1736 163.133 14.6563C164.046 15.1389 164.753 15.8028 165.252 16.6517C165.751 17.4827 166 18.4213 166 19.4692V27.0242H162.11V19.5937C162.11 19.1786 162.002 18.8044 161.786 18.472C161.588 18.1243 161.305 17.8326 160.963 17.624C160.603 17.4048 160.188 17.2923 159.766 17.2996C159.317 17.2996 158.91 17.4081 158.545 17.624C158.203 17.8323 157.919 18.1241 157.721 18.472C157.52 18.811 157.416 19.1993 157.422 19.5937V27.0242H153.557V19.5937C153.557 19.1786 153.449 18.8044 153.233 18.472C153.03 18.1193 152.738 17.8266 152.385 17.624C152.025 17.4048 151.609 17.2923 151.188 17.2996C150.739 17.2996 150.332 17.4081 149.967 17.624C149.625 17.8323 149.341 18.1241 149.143 18.472C148.942 18.8112 148.839 19.1993 148.844 19.5937V27.0242H144.979ZM136.526 27.3238C135.213 27.3238 134.073 27.0749 133.11 26.5754C132.163 26.0599 131.431 25.3701 130.916 24.5062C130.4 23.6254 130.142 22.6521 130.142 21.5882V14.2323H134.008V21.4886C134.008 21.9375 134.115 22.3535 134.331 22.7357C134.547 23.101 134.839 23.4005 135.204 23.6334C135.586 23.8494 136.019 23.9578 136.501 23.9578C136.967 23.9578 137.382 23.8494 137.748 23.6334C138.13 23.4005 138.43 23.101 138.646 22.7357C138.862 22.3535 138.97 21.9375 138.97 21.4886V14.2323H142.835V21.5882C142.835 22.6521 142.585 23.6254 142.086 24.5062C141.588 25.3701 140.865 26.0607 139.918 26.5754C138.986 27.074 137.855 27.3238 136.526 27.3238ZM117.693 27.0242V23.9578H123.852C124.018 23.9578 124.168 23.924 124.301 23.8574C124.433 23.7747 124.542 23.6663 124.624 23.5338C124.706 23.4028 124.749 23.2517 124.749 23.0974C124.749 22.9432 124.706 22.792 124.624 22.661C124.547 22.5328 124.435 22.429 124.301 22.3615C124.166 22.278 124.01 22.2348 123.852 22.237H121.608C120.776 22.237 120.019 22.1037 119.339 21.8379C118.692 21.57 118.137 21.1194 117.742 20.5412C117.36 19.943 117.169 19.1697 117.169 18.2222C117.169 17.4907 117.343 16.8259 117.693 16.2277C118.056 15.6314 118.561 15.1342 119.164 14.7807C119.792 14.4159 120.507 14.2266 121.234 14.2323H127.392V17.3245H121.832C121.611 17.3201 121.397 17.4006 121.234 17.5494C121.161 17.6206 121.103 17.706 121.064 17.8003C121.026 17.8947 121.007 17.9959 121.009 18.0978C121.009 18.3307 121.084 18.5298 121.234 18.696C121.397 18.8448 121.611 18.9253 121.832 18.9208H124.026C124.957 18.9208 125.755 19.0622 126.42 19.3439C127.102 19.6106 127.625 20.0425 127.991 20.6416C128.373 21.2398 128.565 22.0122 128.565 22.9596C128.565 23.708 128.373 24.3898 127.991 25.0039C127.629 25.6161 127.113 26.1234 126.495 26.4758C125.879 26.842 125.182 27.0242 124.4 27.0242H117.693ZM109.272 13.9337C110.353 13.9337 111.308 14.1079 112.139 14.4572C112.955 14.7684 113.689 15.2632 114.284 15.9033C114.89 16.5305 115.357 17.2782 115.655 18.0978C115.971 18.9288 116.129 19.8514 116.129 20.8656C116.129 22.1286 115.863 23.2512 115.331 24.2315C114.839 25.1711 114.097 25.9564 113.187 26.5007C112.272 27.0491 111.209 27.3238 109.995 27.3238C109.48 27.3238 108.989 27.2571 108.523 27.1247C108.082 26.995 107.662 26.8015 107.277 26.5505C106.914 26.3041 106.601 25.991 106.355 25.6279H106.279V32.4363H102.415V20.8647C102.415 19.4515 102.697 18.2293 103.262 17.1992C103.81 16.1852 104.642 15.3531 105.656 14.8047C106.687 14.2234 107.892 13.9328 109.272 13.9328V13.9337ZM109.272 17.2747C108.674 17.2747 108.15 17.4241 107.701 17.7236C107.268 18.0062 106.936 18.4053 106.703 18.9208C106.471 19.4186 106.355 19.9848 106.355 20.6158C106.355 21.2478 106.471 21.8131 106.703 22.3117C106.936 22.8103 107.268 23.2094 107.701 23.5089C108.15 23.7916 108.674 23.9329 109.272 23.9329C109.87 23.9329 110.385 23.7907 110.817 23.5089C111.252 23.2073 111.597 22.7936 111.816 22.3117C112.064 21.8131 112.189 21.2478 112.189 20.6158C112.189 19.9848 112.064 19.4195 111.816 18.9208C111.583 18.4053 111.25 18.0053 110.817 17.7236C110.385 17.4241 109.87 17.2747 109.272 17.2747ZM96.5412 27.0242V14.2323H100.432V27.0242H96.5412ZM98.4859 12.7862C97.8709 12.7862 97.3394 12.5622 96.8905 12.1133C96.4417 11.6645 96.2168 11.1321 96.2168 10.517C96.2168 9.90196 96.4417 9.37044 96.8905 8.92159C97.3394 8.45584 97.8709 8.22297 98.4859 8.22297C99.101 8.22297 99.6334 8.45584 100.082 8.92159C100.531 9.37044 100.755 9.90196 100.755 10.517C100.755 11.1321 100.531 11.6636 100.082 12.1133C99.6334 12.5622 99.101 12.7862 98.4859 12.7862ZM88.0867 27.3238C86.7739 27.3238 85.5936 27.0331 84.5457 26.4509C83.5177 25.8874 82.6574 25.0615 82.0525 24.0573C81.4543 23.0432 81.1548 21.9046 81.1548 20.6407C81.1548 19.3608 81.4543 18.2222 82.0525 17.225C82.6574 16.2208 83.5177 15.3949 84.5457 14.8314C85.5936 14.2323 86.7739 13.9337 88.0867 13.9337C89.4004 13.9337 90.5719 14.2323 91.6029 14.8314C92.6273 15.391 93.4804 16.2183 94.0712 17.225C94.6862 18.2222 94.9938 19.3608 94.9938 20.6407C94.9938 21.9046 94.6862 23.0432 94.0712 24.0573C93.4804 25.064 92.6273 25.8913 91.6029 26.4509C90.5559 27.0331 89.3835 27.3238 88.0867 27.3238ZM88.0867 23.9578C88.7018 23.9578 89.2342 23.8076 89.6831 23.5089C90.132 23.2097 90.4934 22.7965 90.7301 22.3117C90.9798 21.8131 91.1043 21.2478 91.1043 20.6158C91.1043 20.0008 90.9798 19.4444 90.7301 18.9448C90.4933 18.4603 90.1319 18.0474 89.6831 17.7485C89.2342 17.4489 88.7018 17.2996 88.0867 17.2996C87.4717 17.2996 86.9313 17.4489 86.4664 17.7485C86.0172 18.0477 85.6556 18.4609 85.4185 18.9457C85.1645 19.4657 85.0366 20.0381 85.0452 20.6167C85.0452 21.2478 85.1696 21.8131 85.4185 22.3117C85.6557 22.7965 86.0173 23.2096 86.4664 23.5089C86.9313 23.8076 87.4717 23.9578 88.0867 23.9578ZM68.594 32.087V28.7699H74.9766C75.2264 28.7699 75.4343 28.6872 75.6005 28.521C75.6816 28.4494 75.7459 28.3608 75.7889 28.2616C75.8319 28.1624 75.8526 28.0549 75.8494 27.9468V25.1293H75.7748C75.459 25.4964 75.099 25.8231 74.7028 26.1016C74.3366 26.3683 73.9207 26.5674 73.4558 26.7007C72.9611 26.8397 72.4489 26.9068 71.935 26.8998C70.8045 26.8998 69.7903 26.6331 68.8926 26.1016C68.0118 25.5532 67.3132 24.7968 66.7977 23.8325C66.2999 22.869 66.0502 21.7713 66.0502 20.5412C66.0502 19.3279 66.3079 18.2222 66.8234 17.225C67.3549 16.2277 68.1282 15.4295 69.1424 14.8314C70.1556 14.2323 71.3946 13.9337 72.8576 13.9337C74.254 13.9337 75.4592 14.2243 76.4734 14.8065C77.4918 15.3592 78.3244 16.2002 78.867 17.2241C79.4323 18.2551 79.7149 19.4692 79.7149 20.8656V28.3459C79.7149 29.4925 79.3745 30.3991 78.6928 31.0639C78.0279 31.7457 77.1053 32.0861 75.925 32.0861L68.594 32.087ZM72.8825 23.6583C73.4807 23.6583 73.9962 23.5249 74.4291 23.2592C74.8562 22.9819 75.2004 22.5943 75.4255 22.1375C75.6619 21.6566 75.7815 21.1267 75.7748 20.5909C75.7748 19.9928 75.6592 19.4444 75.4263 18.9457C75.1935 18.4471 74.861 18.056 74.4282 17.7734C73.9962 17.4738 73.4807 17.3245 72.8816 17.3245C72.3004 17.3245 71.7848 17.4658 71.336 17.7485C70.904 18.0311 70.5716 18.4133 70.3387 18.8951C70.1067 19.3777 69.9903 19.9172 69.9903 20.5163C69.9903 21.0984 70.1059 21.63 70.3387 22.1126C70.5716 22.5775 70.904 22.9516 71.3369 23.2343C71.7848 23.5169 72.3004 23.6583 72.8825 23.6583ZM58.1939 27.3238C56.8811 27.3238 55.7007 27.0331 54.6537 26.4509C53.6253 25.8876 52.7647 25.0617 52.1596 24.0573C51.5615 23.0432 51.2619 21.9046 51.2619 20.6407C51.2619 19.3608 51.5615 18.2222 52.1596 17.225C52.7647 16.2206 53.6253 15.3947 54.6537 14.8314C55.7007 14.2323 56.8811 13.9337 58.1939 13.9337C59.5075 13.9337 60.679 14.2323 61.71 14.8314C62.7343 15.391 63.5874 16.2183 64.1783 17.225C64.7934 18.2222 65.1009 19.3608 65.1009 20.6407C65.1009 21.9046 64.7934 23.0432 64.1783 24.0573C63.5874 25.064 62.7343 25.8913 61.71 26.4509C60.663 27.0331 59.4906 27.3238 58.1939 27.3238ZM58.1939 23.9578C58.8089 23.9578 59.3404 23.8076 59.7902 23.5089C60.239 23.2095 60.6003 22.7964 60.8372 22.3117C61.0861 21.8131 61.2105 21.2478 61.2105 20.6158C61.2105 20.0008 61.0861 19.4444 60.8372 18.9448C60.6002 18.4604 60.2389 18.0476 59.7902 17.7485C59.3413 17.4489 58.8089 17.2996 58.1939 17.2996C57.5788 17.2996 57.0384 17.4489 56.5735 17.7485C56.1244 18.0477 55.7627 18.4609 55.5256 18.9457C55.2717 19.4657 55.1438 20.0381 55.1523 20.6167C55.1523 21.2478 55.2767 21.8131 55.5256 22.3117C55.7628 22.7965 56.1244 23.2096 56.5735 23.5089C57.0384 23.8076 57.5788 23.9578 58.1939 23.9578ZM45.8161 27.0242C44.7353 27.0242 43.7878 26.7842 42.9737 26.3016C42.1818 25.8425 41.5275 25.1795 41.0787 24.3818C40.6298 23.5836 40.405 22.7019 40.405 21.7384V9.56954H44.594V22.037C44.594 22.437 44.7362 22.7854 45.018 23.085C45.3006 23.3836 45.649 23.5338 46.065 23.5338H50.678V27.0242H45.8161Z" fill="#14424C"/>
</g>
</svg>

<svg xmlns="http://www.w3.org/2000/svg" width="166" height="36" fill="none"><path fill="#3A724F" fill-rule="evenodd" d="m17.66 4.283 2.345-4.06 6.645 3.838-2.343 4.058a.96.96 0 0 0 1.011 1.422l4.49-.867 1.454 7.535-4.49.866c-7.264 1.4-12.81-6.385-9.111-12.792" clip-rule="evenodd"/><path fill="#DC8E43" fill-rule="evenodd" d="m13.6 31.717-2.343 4.06L4.61 31.94l2.344-4.059a.96.96 0 0 0-1.012-1.422l-4.49.866L0 19.79l4.49-.866c7.264-1.4 12.808 6.386 9.11 12.792" clip-rule="evenodd"/><path fill="#14424C" fill-rule="evenodd" d="M13.803 4.283 11.46.223 4.816 4.062l2.344 4.058a.96.96 0 0 1-1.013 1.422l-4.49-.867L.204 16.21l4.49.866c7.264 1.4 12.81-6.385 9.11-12.792" clip-rule="evenodd"/><path fill="#C85D1B" fill-rule="evenodd" d="m17.465 31.717 2.342 4.06 6.646-3.837-2.344-4.059a.96.96 0 0 1 1.013-1.422l4.49.866 1.452-7.534-4.49-.866c-7.263-1.4-12.808 6.386-9.11 12.792z" clip-rule="evenodd"/><path fill="#14424C" d="M144.979 27.024V19.47q0-1.57.723-2.817.748-1.272 2.12-1.996 1.371-.723 3.266-.722c.59-.006 1.177.07 1.746.224a5.6 5.6 0 0 1 1.446.573q.673.349 1.147.848h.05a4.9 4.9 0 0 1 1.147-.848 6 6 0 0 1 1.472-.573 6.7 6.7 0 0 1 1.77-.224q1.895 0 3.267.722 1.37.723 2.119 1.996.748 1.246.748 2.817v7.555h-3.89v-7.43q0-.623-.324-1.122a2.36 2.36 0 0 0-.823-.848 2.23 2.23 0 0 0-1.197-.324q-.673 0-1.221.324c-.342.208-.626.5-.824.848a2.14 2.14 0 0 0-.299 1.122v7.43h-3.865v-7.43q0-.623-.324-1.122a2.3 2.3 0 0 0-.848-.848 2.23 2.23 0 0 0-1.197-.324q-.673 0-1.221.324c-.342.208-.626.5-.824.848-.201.34-.304.727-.299 1.122v7.43zm-8.453.3q-1.97 0-3.416-.749-1.421-.773-2.194-2.069a5.67 5.67 0 0 1-.774-2.918v-7.356h3.866v7.257q0 .672.323 1.247.325.548.873.897a2.6 2.6 0 0 0 1.297.325q.699 0 1.247-.325.574-.349.898-.897.324-.575.324-1.247v-7.257h3.865v7.356q0 1.596-.749 2.918-.747 1.297-2.168 2.07-1.398.748-3.392.748m-18.833-.3v-3.066h6.159a1 1 0 0 0 .449-.1 1 1 0 0 0 .323-.324.82.82 0 0 0 0-.873.8.8 0 0 0-.323-.3.83.83 0 0 0-.449-.124h-2.244q-1.248 0-2.269-.4a3.6 3.6 0 0 1-1.597-1.296q-.573-.897-.573-2.319 0-1.097.524-1.994a4.2 4.2 0 0 1 1.471-1.447 4.06 4.06 0 0 1 2.07-.549h6.158v3.093h-5.56a.86.86 0 0 0-.598.224.75.75 0 0 0-.225.549q0 .35.225.598a.86.86 0 0 0 .598.225h2.194q1.396 0 2.394.423a3.1 3.1 0 0 1 1.571 1.298q.574.896.574 2.318 0 1.122-.574 2.044a4.1 4.1 0 0 1-1.496 1.472q-.923.549-2.095.548zm-8.421-13.09q1.621 0 2.867.523c.816.311 1.55.806 2.145 1.446a6.2 6.2 0 0 1 1.371 2.195q.474 1.245.474 2.768 0 1.894-.798 3.366a5.76 5.76 0 0 1-2.144 2.269q-1.372.822-3.192.823a5.4 5.4 0 0 1-1.472-.2 4.7 4.7 0 0 1-1.246-.573 3.5 3.5 0 0 1-.922-.923h-.076v6.808h-3.864V20.865q0-2.12.847-3.666a5.93 5.93 0 0 1 2.394-2.394q1.546-.873 3.616-.872m0 3.34q-.897 0-1.571.45-.649.423-.998 1.197-.348.748-.348 1.695t.348 1.696q.349.747.998 1.197.674.424 1.571.424t1.545-.424c.435-.302.78-.715.999-1.197q.373-.748.373-1.696 0-.947-.373-1.695-.35-.775-.999-1.197-.648-.45-1.545-.45m-12.73 9.75V14.232h3.89v12.792zm1.944-14.238q-.922 0-1.596-.673-.672-.672-.673-1.596 0-.923.674-1.595.672-.699 1.595-.699t1.596.699q.673.672.673 1.595t-.673 1.596a2.18 2.18 0 0 1-1.596.673m-10.4 14.538q-1.968 0-3.54-.873a6.63 6.63 0 0 1-2.494-2.394q-.897-1.52-.897-3.416 0-1.92.897-3.416a6.63 6.63 0 0 1 2.494-2.394q1.572-.898 3.54-.897 1.97 0 3.517.897a6.44 6.44 0 0 1 2.468 2.394q.923 1.496.923 3.416 0 1.896-.923 3.416a6.44 6.44 0 0 1-2.468 2.394q-1.571.873-3.516.873m0-3.366q.924 0 1.597-.45c.449-.298.81-.711 1.047-1.196q.374-.748.374-1.696 0-.922-.374-1.671a3.04 3.04 0 0 0-1.047-1.197q-.673-.449-1.596-.448-.923 0-1.62.448c-.45.3-.811.713-1.049 1.198a3.7 3.7 0 0 0-.373 1.67q0 .948.373 1.696c.238.485.6.898 1.048 1.197q.698.449 1.62.449m-19.492 8.129V28.77h6.383q.374 0 .623-.249a.74.74 0 0 0 .25-.574v-2.818h-.075a5.9 5.9 0 0 1-1.072.973 4 4 0 0 1-1.247.599 5.4 5.4 0 0 1-1.521.199q-1.696 0-3.042-.798-1.322-.823-2.095-2.27-.748-1.445-.748-3.29 0-1.821.773-3.317.798-1.496 2.32-2.394 1.52-.898 3.715-.897 2.094 0 3.615.873a5.9 5.9 0 0 1 2.394 2.417q.848 1.547.848 3.642v7.48q0 1.72-1.022 2.718-.998 1.022-2.768 1.022zm4.288-8.429q.898 0 1.547-.399c.427-.277.771-.665.996-1.122a3.4 3.4 0 0 0 .35-1.546 3.84 3.84 0 0 0-.349-1.645 2.76 2.76 0 0 0-.998-1.173q-.648-.449-1.546-.448-.873-.001-1.546.424a2.8 2.8 0 0 0-.997 1.146 3.7 3.7 0 0 0-.349 1.621q0 .873.349 1.597.349.698.998 1.121.672.424 1.545.424m-14.688 3.666q-1.97 0-3.54-.873a6.63 6.63 0 0 1-2.494-2.394q-.897-1.52-.898-3.416 0-1.92.898-3.416a6.63 6.63 0 0 1 2.494-2.394q1.57-.898 3.54-.897 1.97 0 3.516.897a6.45 6.45 0 0 1 2.468 2.394q.923 1.496.923 3.416 0 1.896-.923 3.416a6.45 6.45 0 0 1-2.468 2.394q-1.571.873-3.516.873m0-3.366q.922 0 1.596-.45c.449-.299.81-.712 1.047-1.196q.374-.748.373-1.696 0-.922-.373-1.671a3.05 3.05 0 0 0-1.047-1.197q-.674-.449-1.596-.448-.923 0-1.62.448c-.45.3-.811.713-1.048 1.198a3.7 3.7 0 0 0-.374 1.67q0 .948.374 1.696c.237.485.598.898 1.047 1.197q.698.449 1.62.449m-12.378 3.066q-1.62 0-2.842-.722a5.1 5.1 0 0 1-1.895-1.92 5.3 5.3 0 0 1-.674-2.644V9.57h4.189v12.467q0 .599.424 1.048t1.047.449h4.613v3.49z"/></svg>
